X: 2066
T: Astro's Rough Day
R: jig
M: 6/8
K: Dmixolydian
AAA GFD|DDD GFD|EEE cEc|c2c BAG|
AAA GFD|DDD GFD|AGF EFE|1 D2D DEG:|2 D2(DD2)A||
|:cBA ~d2d|cBA ded|cBA g2g|fed cBA|
cBA ~d2d|cBA ded|AGF EFE|1 DDD D2A:|2 D2D DEG||

